src/main/resources/cards/fronts/diamonds_5.svg

<?xml version="1.0" encoding="UTF-8" standalone="no"?>
<!-- Created with Inkscape (http://www.inkscape.org/) -->

<svg
   xmlns:dc="http://purl.org/dc/elements/1.1/"
   xmlns:cc="http://creativecommons.org/ns#"
   xmlns:rdf="http://www.w3.org/1999/02/22-rdf-syntax-ns#"
   xmlns:svg="http://www.w3.org/2000/svg"
   xmlns="http://www.w3.org/2000/svg"
   xmlns:sodipodi="http://sodipodi.sourceforge.net/DTD/sodipodi-0.dtd"
   xmlns:inkscape="http://www.inkscape.org/namespaces/inkscape"
   width="234"
   height="333.00003"
   id="svg2"
   version="1.1"
   inkscape:version="0.92.4 (5da689c313, 2019-01-14)"
   sodipodi:docname="diamonds_5.svg"
   inkscape:export-filename="C:\Users\fowle\OneDrive\Projects\Playing-Cards\fronts\png-096-dpi\diamonds_5.png"
   inkscape:export-xdpi="96"
   inkscape:export-ydpi="96">
  <title
     id="title885">Five of Diamonds Playing Card</title>
  <defs
     id="defs4" />
  <sodipodi:namedview
     id="base"
     pagecolor="#ffffff"
     bordercolor="#666666"
     borderopacity="1.0"
     inkscape:pageopacity="0.0"
     inkscape:pageshadow="2"
     inkscape:zoom="2.1916676"
     inkscape:cx="110.37278"
     inkscape:cy="166.48677"
     inkscape:document-units="px"
     inkscape:current-layer="layer1"
     showgrid="false"
     inkscape:showpageshadow="false"
     showguides="true"
     inkscape:guide-bbox="true"
     inkscape:snap-global="true"
     inkscape:window-width="1456"
     inkscape:window-height="976"
     inkscape:window-x="398"
     inkscape:window-y="9"
     inkscape:window-maximized="0"
     showborder="false"
     fit-margin-top="0"
     fit-margin-left="0"
     fit-margin-right="0"
     fit-margin-bottom="0">
    <inkscape:grid
       type="xygrid"
       id="grid3767"
       empspacing="5"
       visible="true"
       enabled="true"
       snapvisiblegridlinesonly="true"
       originx="0"
       originy="5.1666068e-06" />
  </sodipodi:namedview>
  <metadata
     id="metadata7">
    <rdf:RDF>
      <cc:Work
         rdf:about="">
        <dc:format>image/svg+xml</dc:format>
        <dc:type
           rdf:resource="http://purl.org/dc/dcmitype/StillImage" />
        <dc:title>Five of Diamonds Playing Card</dc:title>
        <cc:license
           rdf:resource="http://creativecommons.org/publicdomain/zero/1.0/" />
        <dc:date>2020-05-05</dc:date>
        <dc:creator>
          <cc:Agent>
            <dc:title>Daniel S. Fowler</dc:title>
          </cc:Agent>
        </dc:creator>
        <dc:rights>
          <cc:Agent>
            <dc:title>Public Domain</dc:title>
          </cc:Agent>
        </dc:rights>
        <dc:publisher>
          <cc:Agent>
            <dc:title>https://tekeye.uk</dc:title>
          </cc:Agent>
        </dc:publisher>
        <dc:language>en-GB</dc:language>
        <dc:subject>
          <rdf:Bag>
            <rdf:li>Five; diamonds; playing; card; white; red;</rdf:li>
          </rdf:Bag>
        </dc:subject>
        <dc:description>A five of diamonds playing card.</dc:description>
      </cc:Work>
      <cc:License
         rdf:about="http://creativecommons.org/publicdomain/zero/1.0/">
        <cc:permits
           rdf:resource="http://creativecommons.org/ns#Reproduction" />
        <cc:permits
           rdf:resource="http://creativecommons.org/ns#Distribution" />
        <cc:permits
           rdf:resource="http://creativecommons.org/ns#DerivativeWorks" />
      </cc:License>
    </rdf:RDF>
  </metadata>
  <g
     inkscape:label="Layer 1"
     inkscape:groupmode="layer"
     id="layer1"
     transform="translate(0,-719.36216)">
    <g
       id="g914">
      <rect
         rx="8.9191856"
         ry="8.9457436"
         y="719.74011"
         x="0.37795275"
         height="332.24411"
         width="233.24409"
         id="rect4266"
         style="fill:#ffffff;fill-opacity:1;stroke:#808080;stroke-width:0.75590551;stroke-linecap:butt;stroke-linejoin:miter;stroke-miterlimit:4;stroke-dasharray:none;stroke-opacity:1" />
      <g
         transform="matrix(0.07348588,0,0,0.07370838,-248.01731,933.60062)"
         id="g4233"
         style="fill:none;stroke:#000000;stroke-width:3.18132639;stroke-opacity:1" />
      <g
         clip-path="none"
         style="fill:none;stroke:#000000;stroke-width:3.18132639;stroke-opacity:1"
         id="g4211"
         transform="matrix(0.07348588,0,0,0.07370838,-248.01728,933.60062)" />
      <g
         transform="matrix(0.07348588,0,0,0.07370838,-248.01731,933.60062)"
         id="g4227"
         style="fill:none;stroke:#000000;stroke-width:3.18132639;stroke-opacity:1" />
      <path
         inkscape:export-ydpi="95.969437"
         inkscape:export-xdpi="95.969437"
         inkscape:export-filename="D:\DAN\Documents\Projects\Playing Cards\test.png"
         inkscape:connector-curvature="0"
         id="path4884-1"
         d="M 58.629672,814.07624 86.87338,785.73971 58.629672,757.40317 30.385965,785.73971 Z"
         style="fill:#ff0000;fill-opacity:1;stroke:none;stroke-width:1" />
      <path
         inkscape:export-ydpi="95.969437"
         inkscape:export-xdpi="95.969437"
         inkscape:export-filename="D:\DAN\Documents\Projects\Playing Cards\test.png"
         inkscape:connector-curvature="0"
         id="path4884-1-4"
         d="M 58.629676,1014.3212 86.87338,985.98462 58.629676,957.64809 30.385965,985.98462 Z"
         style="fill:#ff0000;fill-opacity:1;stroke:none;stroke-width:1" />
      <path
         inkscape:export-ydpi="95.969437"
         inkscape:export-xdpi="95.969437"
         inkscape:export-filename="D:\DAN\Documents\Projects\Playing Cards\test.png"
         inkscape:connector-curvature="0"
         id="path4884-1-40"
         d="M 175.37033,814.07623 203.61404,785.7397 175.37033,757.40316 147.12662,785.7397 Z"
         style="fill:#ff0000;fill-opacity:1;stroke:none;stroke-width:1" />
      <path
         inkscape:export-ydpi="95.969437"
         inkscape:export-xdpi="95.969437"
         inkscape:export-filename="D:\DAN\Documents\Projects\Playing Cards\test.png"
         inkscape:connector-curvature="0"
         id="path4884-1-4-9"
         d="m 175.37033,1014.3212 28.24371,-28.33659 -28.24371,-28.33654 -28.24371,28.33654 z"
         style="fill:#ff0000;fill-opacity:1;stroke:none;stroke-width:1" />
      <path
         inkscape:export-ydpi="95.969437"
         inkscape:export-xdpi="95.969437"
         inkscape:export-filename="D:\DAN\Documents\Projects\Playing Cards\test.png"
         inkscape:connector-curvature="0"
         id="path4884-1-4-1-4"
         d="M 117,914.1987 145.24371,885.86217 117,857.52564 88.756294,885.86217 Z"
         style="fill:#ff0000;fill-opacity:1;stroke:none;stroke-width:1" />
      <path
         inkscape:connector-curvature="0"
         id="path4884-1-4-5-3"
         d="m 17.205569,780.7021 9.414569,-9.44551 -9.414569,-9.44552 -9.4145688,9.44552 z"
         style="fill:#ff0000;fill-opacity:1;stroke:none;stroke-width:1" />
      <path
         inkscape:connector-curvature="0"
         id="path4884-1-4-5-3-5"
         d="m 216.79443,991.02224 9.41457,9.44556 -9.41457,9.4455 -9.41457,-9.4455 z"
         style="fill:#ff0000;fill-opacity:1;stroke:none;stroke-width:1" />
      <g
         id="text3755"
         style="fill:#ff0000;font-style:normal;font-variant:normal;font-weight:bold;font-stretch:normal;font-size:3.77201176px;line-height:0%;font-family:'Levenim MT';-inkscape-font-specification:'Sans Bold';letter-spacing:0px;word-spacing:0px;fill:#ff0000;fill-opacity:1;stroke:none;stroke-width:0.99999994"
         transform="scale(0.99509933,1.0049248)"
         aria-label="5">
        <path
           id="path893"
           style="font-size:39.90935898px;line-height:1.25;stroke-width:0.99999994"
           d="m 26.751238,742.30184 q 0,4.36509 -2.650231,6.93737 -2.630744,2.57228 -6.99583,2.57228 -4.189703,0 -6.625577,-2.04613 -2.6502312,-2.18254 -2.6502312,-6.2943 0,-0.66256 1.0522976,-0.66256 h 2.5527956 q 0.409227,0 0.759993,0.11692 0.116922,0.19487 0.155896,0.50667 0.331279,2.20203 1.266654,3.15689 1.052298,1.07178 3.234841,1.07178 2.182543,0 3.527145,-1.53947 1.266655,-1.46152 1.266655,-3.66355 0,-5.43687 -4.501495,-5.43687 -1.636907,0 -3.293302,1.13024 h -3.215353 q -0.448201,0 -0.857428,-0.11692 -0.1948699,-0.19487 -0.1948699,-0.4482 0,-2.76715 0.2923048,-6.97634 0.2533311,-3.50766 0.5066621,-6.99583 h 14.615243 q 0.506662,0 0.915889,0.15589 0.175383,0.38974 0.175383,2.72818 0,0.38974 -0.03897,0.64307 -0.136409,0.62359 -1.130245,0.62359 H 14.338024 q 0.05846,1.05229 -0.175383,3.21535 -0.233844,2.14357 -0.175383,3.19587 2.00716,-1.24717 4.189703,-1.24717 4.014321,0 6.35276,2.72818 2.221517,2.57228 2.221517,6.64506 z" />
      </g>
      <g
         id="text3755-2"
         style="fill:#ff0000;font-style:normal;font-variant:normal;font-weight:bold;font-stretch:normal;font-size:3.77201176px;line-height:0%;font-family:'Levenim MT';-inkscape-font-specification:'Sans Bold';letter-spacing:0px;word-spacing:0px;fill:#ff0000;fill-opacity:1;stroke:none;stroke-width:0.99999994"
         transform="scale(-0.99509933,-1.0049248)"
         aria-label="5">
        <path
           id="path896"
           style="font-size:39.90935898px;line-height:1.25;stroke-width:0.99999994"
           d="m -208.40118,-1020.7398 q 0,4.3651 -2.65023,6.9374 -2.63075,2.5723 -6.99583,2.5723 -4.18971,0 -6.62558,-2.0462 -2.65023,-2.1825 -2.65023,-6.2943 0,-0.6625 1.0523,-0.6625 h 2.55279 q 0.40923,0 0.76,0.1169 0.11692,0.1949 0.15589,0.5067 0.33128,2.202 1.26666,3.1569 1.05229,1.0717 3.23484,1.0717 2.18254,0 3.52714,-1.5394 1.26666,-1.4616 1.26666,-3.6636 0,-5.4369 -4.5015,-5.4369 -1.63691,0 -3.2933,1.1303 h -3.21535 q -0.4482,0 -0.85743,-0.1169 -0.19487,-0.1949 -0.19487,-0.4482 0,-2.7672 0.2923,-6.9764 0.25333,-3.5076 0.50667,-6.9958 h 14.61524 q 0.50666,0 0.91589,0.1559 0.17538,0.3897 0.17538,2.7282 0,0.3897 -0.039,0.643 -0.13641,0.6236 -1.13025,0.6236 h -10.58144 q 0.0585,1.0523 -0.17538,3.2154 -0.23384,2.1435 -0.17538,3.1958 2.00716,-1.2471 4.1897,-1.2471 4.01432,0 6.35276,2.7282 2.22152,2.5722 2.22152,6.645 z" />
      </g>
    </g>
  </g>
</svg>

<svg width="234" height="333.00003" xmlns="http://www.w3.org/2000/svg">
    <g id="layer1" transform="matrix(1 0 0 1 0 -719.3622)">
        <g id="g914">
            <path id="rect4266" fill="#ffffff" stroke="#808080" stroke-width="0.7559055" d="M 9.297138 719.7401 L 224.70288 719.7401 C 229.6288 719.7401 233.62206 723.74524 233.62206 728.68585 L 233.62206 1043.0385 C 233.62207 1045.411 232.68237 1047.6864 231.0097 1049.3641 C 229.33702 1051.0417 227.06839 1051.9843 224.70288 1051.9843 L 9.297138 1051.9843 C 6.9316134 1051.9843 4.662975 1051.0417 2.9903018 1049.3641 C 1.3176281 1047.6864 0.3779376 1045.411 0.37795275 1043.0385 L 0.37795275 728.68585 C 0.37795484 723.74524 4.3712096 719.7401 9.297138 719.7401 Z"/>
            <g id="g4233" transform="matrix(0.07348588 0 0 0.07370838 -248.0173 933.60065)"/>
            <g id="g4211" transform="matrix(0.07348588 0 0 0.07370838 -248.01726 933.60065)"/>
            <g id="g4227" transform="matrix(0.07348588 0 0 0.07370838 -248.0173 933.60065)"/>
            <path id="path4884-1" fill="#ff0000" stroke="none" d="M 58.629673 814.07623 L 86.87338 785.7397 L 58.629673 757.40326 L 30.385965 785.7397 Z"/>
            <path id="path4884-1-4" fill="#ff0000" stroke="none" d="M 58.629677 1014.3212 L 86.87338 985.9846 L 58.629677 957.6481 L 30.385965 985.9846 Z"/>
            <path id="path4884-1-40" fill="#ff0000" stroke="none" d="M 175.37032 814.07623 L 203.61404 785.7397 L 175.37032 757.40314 L 147.12662 785.7397 Z"/>
            <path id="path4884-1-4-9" fill="#ff0000" stroke="none" d="M 175.37032 1014.3212 L 203.61404 985.9846 L 175.37032 957.6481 L 147.12662 985.9846 Z"/>
            <path id="path4884-1-4-1-4" fill="#ff0000" stroke="none" d="M 117 914.19867 L 145.24371 885.8622 L 117 857.52563 L 88.756294 885.8622 Z"/>
            <path id="path4884-1-4-5-3" fill="#ff0000" stroke="none" d="M 17.205568 780.7021 L 26.620136 771.2566 L 17.205568 761.8111 L 7.7910004 771.2566 Z"/>
            <path id="path4884-1-4-5-3-5" fill="#ff0000" stroke="none" d="M 216.79443 991.0222 L 226.209 1000.4677 L 216.79443 1009.9134 L 207.37987 1000.4677 Z"/>
            <g id="text3755" transform="matrix(0.9950993 0 0 1.0049248 0 0)">
                <path id="path893" fill="#ff0000" stroke="none" d="M 26.751238 742.30176 Q 26.751238 746.667 24.101007 749.2392 Q 21.470263 751.81146 17.105177 751.81146 Q 12.915474 751.81146 10.4796 749.7653 Q 7.829368 747.5828 7.829368 743.4711 Q 7.829368 742.8085 8.881666 742.8085 L 11.434462 742.8085 Q 11.843689 742.8085 12.194455 742.9254 Q 12.311377 743.1203 12.350351 743.432 Q 12.681631 745.6341 13.617004 746.589 Q 14.669303 747.66077 16.851847 747.66077 Q 19.03439 747.66077 20.37899 746.1213 Q 21.645645 744.6598 21.645645 742.45776 Q 21.645645 737.0209 17.144152 737.0209 Q 15.507243 737.0209 13.850849 738.1511 L 10.635496 738.1511 Q 10.187295 738.1511 9.778068 738.0342 Q 9.583199 737.8393 9.583199 737.586 Q 9.583199 734.81885 9.875503 730.6097 Q 10.128834 727.102 10.382165 723.61383 L 24.997406 723.61383 Q 25.504068 723.61383 25.913298 723.7698 Q 26.08868 724.1594 26.08868 726.49786 Q 26.08868 726.88763 26.04971 727.1409 Q 25.9133 727.7645 24.919464 727.7645 L 14.338024 727.7645 Q 14.396483 728.81683 14.162641 730.9799 Q 13.928796 733.1235 13.987258 734.1758 Q 15.994418 732.9286 18.176962 732.9286 Q 22.191282 732.9286 24.52972 735.65686 Q 26.751238 738.22906 26.751238 742.30176 Z"/>
            </g>
            <g id="text3755-2" transform="matrix(-0.9950993 0 0 -1.0049248 0 0)">
                <path id="path896" fill="#ff0000" stroke="none" d="M -208.40118 -1020.7398 Q -208.40118 -1016.3747 -211.05139 -1013.8024 Q -213.68216 -1011.23004 -218.04724 -1011.23004 Q -222.23695 -1011.23004 -224.67284 -1013.27637 Q -227.32304 -1015.4588 -227.32304 -1019.57056 Q -227.32304 -1020.2331 -226.27077 -1020.2331 L -223.71796 -1020.2331 Q -223.30873 -1020.2331 -222.95796 -1020.11615 Q -222.84103 -1019.92126 -222.80206 -1019.6095 Q -222.4708 -1017.4075 -221.53542 -1016.4526 Q -220.48314 -1015.381 -218.30055 -1015.381 Q -216.11803 -1015.381 -214.77344 -1016.9203 Q -213.50676 -1018.3819 -213.50676 -1020.5839 Q -213.50676 -1026.0208 -218.00827 -1026.0208 Q -219.64519 -1026.0208 -221.30157 -1024.8905 L -224.51692 -1024.8905 Q -224.96512 -1024.8905 -225.37434 -1025.0074 Q -225.56921 -1025.2023 -225.56921 -1025.4556 Q -225.56921 -1028.2228 -225.2769 -1032.432 Q -225.02359 -1035.9396 -224.77025 -1039.4279 L -210.15501 -1039.4279 Q -209.64835 -1039.4279 -209.23912 -1039.2719 Q -209.06374 -1038.8822 -209.06374 -1036.5437 Q -209.06374 -1036.154 -209.10275 -1035.9008 Q -209.23914 -1035.2771 -210.233 -1035.2771 L -220.81442 -1035.2771 Q -220.75592 -1034.2249 -220.9898 -1032.0616 Q -221.22365 -1029.9182 -221.1652 -1028.8658 Q -219.15804 -1030.113 -216.97551 -1030.113 Q -212.96115 -1030.113 -210.62273 -1027.3848 Q -208.40123 -1024.8126 -208.40123 -1020.7398 Z"/>
            </g>
        </g>
    </g>
</svg>
